src/assets/security.svg

<svg fill="none" height="24" viewBox="0 0 25 24" width="25" xmlns="http://www.w3.org/2000/svg"><path d="m10.3863 21.8806c.446.1592.9303.1592 1.3763 0 3.0389-1.0837 4.1367-1.969 4.1367-1.969 3.1583-2.2398 3.1861-5.1809 3.1861-5.1809v-9.28199c0-.45502-.356-.84586-.7936-.86249-2.2414-.0827-5.5448-1.79518-6.754-2.46526-.1428-.07941-.3023-.12096-.4643-.12096s-.3216.04155-.4644.12096c-1.20923.66807-4.51068 2.38256-6.75404 2.46526-.43755.01652-.79354.40747-.79354.86249v9.28199s.0278 2.941 3.18608 5.1809c.00194 0 1.09974.8853 4.1387 1.969z" fill="#42cf00"/><path d="m10.5002 20.1987c.3727.1324.777.1324 1.1496 0 2.5377-.9037 3.4546-1.6441 3.4546-1.6441 2.6371-1.8697 2.661-4.3267 2.661-4.3267v-7.64822c0-.38057-.2983-.70524-.6623-.71974-1.8714-.0683-4.6299-1.49943-5.6382-2.0579-.1194-.06623-.2526-.10087-.3879-.10087-.1352 0-.2684.03464-.3878.10087-1.00825.55836-3.76676 1.9896-5.63824 2.0579-.36393.01239-.66229.33917-.66229.71974v7.64822s.02383 2.457 2.66106 4.3267c-.00397 0 .91288.7404 3.45047 1.6441z" fill="#46dc00"/><path d="m10.4853 13.9603c-.1573.0002-.3082-.0645-.4196-.1799l-2.09432-2.1799c-.23267-.242-.23267-.6329 0-.8728.23268-.2419.60862-.2419.83926 0l1.67456 1.7414 3.3849-3.52005c.2327-.24196.6087-.24196.8393 0 .2327.24196.2327.63292 0 .87276l-3.8045 3.95639c-.0547.058-.12.104-.1921.1353-.072.0312-.1494.0471-.2275.0468z" fill="#fff"/><path d="m20.8548 20.6858-.52-.52c.48-.64.76-1.44.76-2.32 0-2.16-1.76-3.92-3.96-3.92s-3.96 1.76-3.96 3.92 1.76 3.92 3.96 3.92c.88 0 1.68-.32 2.32-.76l.52.52c.24.24.6.24.84 0s.24-.6.04-.84z" fill="#ff5f5f"/><path d="m14.6543 17.8052c0 .6472.2613 1.2678.7264 1.7254s1.0959.7146 1.7536.7146 1.2885-.257 1.7536-.7146.7264-1.0782.7264-1.7254c0-.6471-.2613-1.2677-.7264-1.7253s-1.0959-.7147-1.7536-.7147-1.2885.2571-1.7536.7147-.7264 1.0782-.7264 1.7253z" fill="#fff"/><path d="m17.3746 16.6848c.2 0 .36-.16.36-.36s-.16-.36-.36-.36-.36.16-.36.36.16.36.36.36z" fill="#ffd6c2"/></svg>

<svg width="25" height="24" viewBox="0 0 25 24" fill="none" xmlns="http://www.w3.org/2000/svg">
<path d="M10.3863 21.8806C10.8323 22.0398 11.3166 22.0398 11.7626 21.8806C14.8015 20.7969 15.8993 19.9116 15.8993 19.9116C19.0576 17.6718 19.0854 14.7307 19.0854 14.7307V5.44871C19.0854 4.99369 18.7294 4.60285 18.2918 4.58622C16.0504 4.50352 12.747 2.79104 11.5378 2.12096C11.395 2.04155 11.2355 2 11.0735 2C10.9115 2 10.7519 2.04155 10.6091 2.12096C9.39987 2.78903 6.09842 4.50352 3.85506 4.58622C3.41751 4.60274 3.06152 4.99369 3.06152 5.44871V14.7307C3.06152 14.7307 3.08932 17.6717 6.2476 19.9116C6.24954 19.9116 7.34734 20.7969 10.3863 21.8806Z" fill="#42CF00"/>
<path d="M10.5002 20.1987C10.8729 20.3311 11.2772 20.3311 11.6498 20.1987C14.1875 19.295 15.1044 18.5546 15.1044 18.5546C17.7415 16.6849 17.7654 14.2279 17.7654 14.2279V6.57968C17.7654 6.19911 17.4671 5.87444 17.1031 5.85994C15.2317 5.79164 12.4732 4.36051 11.4649 3.80204C11.3455 3.73581 11.2123 3.70117 11.077 3.70117C10.9418 3.70117 10.8086 3.73581 10.6892 3.80204C9.68095 4.3604 6.92244 5.79164 5.05096 5.85994C4.68703 5.87233 4.38867 6.19911 4.38867 6.57968V14.2279C4.38867 14.2279 4.4125 16.6849 7.04973 18.5546C7.04576 18.5546 7.96261 19.295 10.5002 20.1987Z" fill="#46DC00"/>
<path d="M10.4853 13.9603C10.328 13.9605 10.1771 13.8958 10.0657 13.7804L7.97138 11.6005C7.73871 11.3585 7.73871 10.9676 7.97138 10.7277C8.20406 10.4858 8.58 10.4858 8.81064 10.7277L10.4852 12.4691L13.8701 8.94905C14.1028 8.70709 14.4788 8.70709 14.7094 8.94905C14.9421 9.19101 14.9421 9.58197 14.7094 9.82181L10.9049 13.7782C10.8502 13.8362 10.7849 13.8822 10.7128 13.9135C10.6408 13.9447 10.5634 13.9606 10.4853 13.9603Z" fill="white"/>
<path d="M20.8548 20.6858L20.3348 20.1658C20.8148 19.5258 21.0948 18.7258 21.0948 17.8458C21.0948 15.6858 19.3348 13.9258 17.1348 13.9258C14.9348 13.9258 13.1748 15.6858 13.1748 17.8458C13.1748 20.0058 14.9348 21.7658 17.1348 21.7658C18.0148 21.7658 18.8148 21.4458 19.4548 21.0058L19.9748 21.5258C20.2148 21.7658 20.5748 21.7658 20.8148 21.5258C21.0548 21.2858 21.0548 20.9258 20.8548 20.6858Z" fill="#FF5F5F"/>
<path d="M14.6543 17.8052C14.6543 18.4524 14.9156 19.073 15.3807 19.5306C15.8458 19.9882 16.4766 20.2452 17.1343 20.2452C17.792 20.2452 18.4228 19.9882 18.8879 19.5306C19.353 19.073 19.6143 18.4524 19.6143 17.8052C19.6143 17.1581 19.353 16.5375 18.8879 16.0799C18.4228 15.6223 17.792 15.3652 17.1343 15.3652C16.4766 15.3652 15.8458 15.6223 15.3807 16.0799C14.9156 16.5375 14.6543 17.1581 14.6543 17.8052Z" fill="white"/>
<path d="M17.3746 16.6848C17.5746 16.6848 17.7346 16.5248 17.7346 16.3248C17.7346 16.1248 17.5746 15.9648 17.3746 15.9648C17.1746 15.9648 17.0146 16.1248 17.0146 16.3248C17.0146 16.5248 17.1746 16.6848 17.3746 16.6848Z" fill="#FFD6C2"/>
</svg>
